X: 1
T: The Rose In The Heather
R: jig
M: 6/8
L: 1/8
K: Dmaj
D2F EDB,|DFA BAF|ABd ede|fdB AFE|
~F3 EFE|DFA Bcd|edB AFE|FDD D3:|
|:fdB ABd|faa afd|~g3 fed|Bee ede|fdB ABd|
faa afa|baf gfe|1 fdd d2e:|2 fdB AFE||
"Variations:"
~F3 EFE|DFA BAF|ABd ede|fdB AFE|
D2F EDB,|DFA BAF|AdB AFE|1 FDD D3:|2 FDD D2e||
|:fdB AFA|dfa afd|~g3 fed|Bee ede|
fdB AFA|dfa afa|baf gfe|1 fdd d2e:|2 fdB AFE||


Tune 447	Setting 28267

